X: 10681
M: C
L: 1/16
K: G
|: d2 |\
g3db3d c'3db3d | B3g (c'bag) f2a2a2b2 |\
g3db3d c'3db3d | c'bag fgaf g4 g2(3def |
g3db3d c'3db3d | B3g (c'bag) f2a2-a2b2 |\
e3ce3g | d3Bd2g2 | d3g bagf g4g2b2 !segno!|]


